X:5
T:No.25 Ril na Drithleog
C:reel
M:4/4
L:1/8
K:G
gc||dBB2dBGB|dBBA Bdge|
dBB2dBGB|cBce agfe|
dBB2dBGA|BABd gfga|
bagb agfa|[1gfga bage:|
|[2gfed Beef||g2bg fgaf|
gafg edBd|g2bg fgaf|
gfed Beef|g2bg fgaf|
gafg edBd|gfga bgaf|
|[1gfed Beef:|[2gfed Bdge||
